X:23
T:Faqbol Ennas Uhe eallo
T:Uinn McEly
T:John Che
R:jig
Z:id:hn-polka-1
M:6
K:D
P:Bucha's and


*****************************


14500 2 0.79735816 

<stark>
c>de|G2 G>A|BA A>B|AG G2|ED G>A|B2 cd|Bd Bd:|
|:d2 e>f|1 A2 A2:|2 fe fe|d2 d2||
<end>
<start>
